X: 32564
T: Planxty Hewlett
R: waltz
M: 3/4
K: Dmajor
D2D2FG|ABc2A2|d2f2fg|fed3B|A2F2F2|G2GBAG|AFD2D2|D4DA,|
D2D2FG|ABc2A2|d2f2fg|f2ed2B|A2F2F2|G2GBAG|AFD2D2|D6|
A2D2AB|A2D2AB|A2d2d2|dcBAG2|G,2G2GA|G2G,2GA|G2GABG|
AFD3D|FEF2G2|ABc2A2|fefgag|fed2B|A2ABAF|G3ABG|AFD2D2|D3z3|

